X:1
T:Ego sum panis vivus
T:
T:from the 19th century magazine Caecilia.
T:Michael Haller Opus 2, No. 14
T:John 6: 51-52
T:Copyright © 2000 by the Choral Public Domain Library (http://www.cpdl.org) Edition may be freely distributed, duplicated, performed, or recorded.
T:Ego sum panis vivus from the 19th century magazine Caecilia.
T:Copyright © 2000 by the Choral Public Domain Library (http://www.cpdl.org) Edition may be freely distributed, duplicated, performed, or recorded.
T:Copyright © 2000 by the Choral Public Domain Library (http://www.cpdl.org) Edition may be freely distributed, duplicated, performed, or recorded.
T:Copyright © 2000 by the Choral Public Domain Library (http://www.cpdl.org) Edition may be freely distributed, duplicated, performed, or recorded.
C:Michael Haller
C:Opus 2, No. 14
Z:John 6: 51-52
Z:Copyright © 2000 by the Choral Public Domain Library (http://www.cpdl.org)
Z:Edition may be freely distributed, duplicated, performed, or recorded.
%%score [ 1 2 3 4 ]
L:1/8
Q:1/4=69
M:4/4
K:G
V:1 treble nm="Soprano" snm="S."
V:2 treble nm="Alto" snm="A."
V:3 treble-8 transpose=-12 nm="Tenor" snm="T."
V:4 bass nm="Bass" snm="B."
V:1
!p! G4!<(! F2!<)! G2 | A4 B4 |!>(! (c3 B A2!>)! G2- | G2 F2)!mf! G4 | B2 d2 e4 | d2"^I" B2 (G3 A | %6
w: E- go sum|pa- nis|vi- * * *|* * vus.|qui de coe-|lo de- scen- *|
 B3 c!>(! d4)!>)! | A4 z2 A2- | A2 F2 G2 A2 | B3 A G4 |!<(! A2!<)! B2 c4 | B2"^I" (G3 ABc | %12
w: |di; si|_ quis man- du-|ca- ve- rit|ex hoc pa-|ne vi- * * *|
 d2) G2"^I" c2 d2 | e4 d2"^I" (d2 | dcBA G3 A | B2)"^I" d2 g2 f2 | (e2 d2) c4 |!>(! d6!>)! G2 | %18
w: * vet in ae-|ter- num, vi-||* vet in ae-|ter- * num,|in ae-|
 A8 |!mf!"^I" B2 d2 c2 A2 | B4 z4 | z2 e2 d2 B2 | c4 z4 | z2 (d3 cBA | G2) B2 A4 | B4 z4 | %26
w: ter-|num. Al- le- lu-|ia,|al- le- lu-|ia,|al- * * *|* le- lu-|ia,|
 z2 G2 A2 B2 | c2"^I" d2 e2 f2 | (g3 f edcB | A4) z4 | z2 (d3 cBA | G2) d2 c2 A2 | %32
w: al- le- lu-|ia, al- le- lu-|ia, _ _ _ _ _|_|al- * * *|* le- * lu-|
 B2"^I"!f! g2 =f2 d2 | e4!ff! z4 | d6 B2 | A8 | !fermata!B8 |] %37
w: ia, al- le- lu-|ia,|al- le-|lu-|ia.|
V:2
!p! D4!<(! D2!<)! B,2 | D4 D4 |!>(! (E6!>)! D2 | E2 D2)!mf! D4 | G2 G2 (G3 A) | B2"^I" G2 (E3 F | %6
w: E- go sum|pa- nis|vi- *|* * vus.|qui de coe- *|lo de- scen- *|
 GFDE!>(! F4)!>)! | F4 z2 F2- | F2 F2 E2 D2 | D3 D D4 |!<(! E2!<)! G4 F2 |"^I" G4 G4 | %12
w: |di; si|_ quis man- du-|ca- ve- rit|ex hoc pa-|ne vi-|
"^I" G4 G2 G2 | (G3 A) B2"^I" (B2- | BAGF E3 F | G4)"^I" G4 | G2 G2 A4 |"^I" A4!>(! D2!>)! G2- | %18
w: vet in ae-|ter- * num, vi-||* vet|in ae- ter-|num, in ae-|
 G2 (FE F4) |!mf! G2"^I" D2 E2 F2 | G4 z4 | z2 E2 F2 G2 | E2"^I" (c3 BAG | F4) E2 D2 | %24
w: * ter- * *|num. Al- le- lu-|ia,|al- le- lu-|ia, al- * * *|* le- lu-|
 D2"^I" G3 G F2 | G2"^I" D2 E2 F2 | G4 z2 (=F2 | G2) (A2 B2) c2 | B4 z4 | z2 (c3 BAG | F4) E2 D2 | %31
w: ia, al- le- lu-|ia, al- le- lu-|ia, al-|* le- * lu-|ia,|al- * * *|* le- lu-|
 D2"^I" G2 E2 F2 | G2!f!"^I" B2 A2 G2 | G4"^I"!ff! c2 B2 | (A4 G4 | G2 FE F4) | !fermata!G8 |] %37
w: ia, al- le- lu-|ia, al- le- lu-|ia, al- le-|lu- *||ia.|
V:3
!p! B4!<(! A2!<)! G2 | F4 G4 |!>(! (G4 A2!>)! B2 | A4)!mf! B4 | d2 B2 c4 | B2"^I" d2 e4 | %6
w: E- go sum|pa- nis|vi- * *|* vus.|qui de coe-|lo de coe-|
"^I" d2 B2!>(! A4!>)! | d4 z2 !>!d2- | d2 d2 c3 c | B3 c d4 |!<(! c2!<)! d2 (e2 c2) | %11
w: lo de- scen-|di; si|_ quis man- du-|ca- ve- rit|ex hoc pa- *|
"^I" d4 (G3 A | Bc) d2"^I" e2 d2 | c4 B2"^I" (B2- | Bc d2) e2"^I" (e2 | dcBc d2)"^I" d2 | %16
w: ne vi- *|* * vet in ae-|ter- num, vi-|* * * vet, vi-|* * * * * vet,|
 c2 d2 e4 |"^I" d4!>(! B2!>)! B2 | d8 | d4 z4 |!mf! z2 G2 A2 B2 | c2"^I" c2 B2 G2 | A4 z2 (d2- | %23
w: in ae- ter-|num, in ae-|ter-|num.|Al- le- lu-|ia, al- le- lu-|ia, al-|
 dcBA) G2 A2 | B2"^I" B2 e2 d2 | d2"^I" d2 c2 A2 | B4 z2 (d2 | c2) (A2 G2) c2 | d2"^I" G2 A2 B2 | %29
w: * * * * le- lu-|ia, al- le- lu-|ia, al- le- lu-|ia, al-|* le- * lu-|ia, al- le- lu-|
 c4 z2 (d2- | dcBA) G2 A2 | B2"^I" B2 c2 d2 | G2!f!"^I" d2 c2 g2 | e4!ff! z4 | (f4 g2) d2 | d8 | %36
w: ia, al-|* * * * le- lu-|ia, al- le- lu-|ia, al- le- lu-|ia,|al- * le-|lu-|
 !fermata!d8 |] %37
w: ia.|
V:4
!p! G,4!<(! D,2!<)! E,2 | D,4 G,,4 |!>(! (C,6!>)! B,,2 | C,2 D,2) G,4- | G,4!mf! z4 | G,2 B,2 C4 | %6
w: E- go sum|pa- nis|vi- *|* * vus.|_|qui de coe-|
"^I" B,2 G,2!>(! D,4!>)! | D,4 z2 !>!D,2- | D,2 D,2 E,2 F,2 | G,3 A, B,4 |!<(! C2!<)! B,2 A,4 | %11
w: lo de- scen-|di; si|_ quis man- du-|ca- ve- rit|ex hoc pa-|
 G,4 z2 (G,2- | G,A,) B,2"^I" C2 B,2 | C4 G,2"^I" (G,2 | G,A, B,2) C2"^I" (C2 | %15
w: ne vi-|* * vet in ae-|ter- num, vi-|* * * vet, vi-|
 B,A,G,A, B,2)"^I" B,2 | C2 B,2 (A,3 G,) |"^I" F,4!>(! G,2!>)! E,2 | D,8 | G,4 z4 | %20
w: * * * * * vet,|in ae- ter- *|num, in ae-|ter-|num.|
!mf! z2 G,2 =F,2 D,2 | C,2"^I" C,2 D,2 E,2 | A,,2"^I" (A,3 G,F,E, | D,4) E,2 F,2 | %24
w: Al- le- lu-|ia, al- le- lu-|ia, al- * * *|* le- lu-|
 G,2"^I" E,D, (^C,2 D,2) | G,4 z4 | z2 G,2 =F,2 D,2 | E,2"^I" F,2 G,2 A,2 | B,2"^I" E,2 F,2 G,2 | %29
w: ia, al- le- lu- *|ia,|al- le- lu-|ia, al- le- lu-|ia, al- le- lu-|
 A,2"^I" (A,3 G,F,E, | D,4) E,2 F,2 | G,4 z4 |!f! z2 G,2 A,2 B,2 | C4!ff! z4 | (D4 B,2) G,2 | D,8 | %36
w: ia, al- * * *|* le- lu-|ia,|al- le- lu-|ia,|al- * le-|lu-|
 !fermata![G,,G,]8 |] %37
w: ia.|

